storage/app/icons/phosphoricons/duotone/polygon-duotone.svg

<svg xmlns="http://www.w3.org/2000/svg" fill="currentColor" viewBox="0 0 256 256"><path d="M137 65a24 24 0 1 1 0-34 24 24 0 0 1 0 34M23 103a24 24 0 1 0 34 0 24 24 0 0 0-34 0m120 88a24 24 0 1 0 34 0 24 24 0 0 0-34 0m82-136a24 24 0 1 0 0 34 24 24 0 0 0 0-34" opacity=".2"/><path d="M230.64 49.36a32 32 0 0 0-45.26 0 32 32 0 0 0-5.16 6.76L152 48.42a32 32 0 0 0-54.63-23.06 32.06 32.06 0 0 0-5.76 37.41L57.67 93.32a32.05 32.05 0 0 0-40.31 4.05 32 32 0 0 0 42.89 47.41l70 51.36a32 32 0 1 0 47.57-14.69l27.39-77.59q1.38.12 2.76.12a32 32 0 0 0 22.63-54.62Zm-122-12.69a16 16 0 1 1 0 22.64 16 16 0 0 1 .04-22.64Zm-80 94.65a16 16 0 0 1 0-22.64 16 16 0 1 1 0 22.64m142.65 88a16 16 0 0 1-22.63-22.63 16 16 0 1 1 22.63 22.63m-8.55-43.18a32 32 0 0 0-23 7.08l-70-51.36a32.17 32.17 0 0 0-1.34-26.65l33.95-30.55a32 32 0 0 0 45.47-10.81L176 71.56a32 32 0 0 0 14.12 27ZM219.3 83.3a16 16 0 1 1-22.6-22.62 16 16 0 0 1 22.63 22.63Z"/></svg>

<svg xmlns="http://www.w3.org/2000/svg" viewBox="0 0 256 256" fill="currentColor"><path d="M137,65A24,24,0,1,1,137,31,24,24,0,0,1,137,65ZM23,103A24,24,0,1,0,57,103,24,24,0,0,0,23,103Zm120,88A24,24,0,1,0,177,191,24,24,0,0,0,143,191ZM225,55A24,24,0,1,0,225,89,24,24,0,0,0,225,55Z" opacity="0.2"/><path d="M230.64,49.36a32,32,0,0,0-45.26,0h0a31.9,31.9,0,0,0-5.16,6.76L152,48.42A32,32,0,0,0,97.37,25.36h0a32.06,32.06,0,0,0-5.76,37.41L57.67,93.32a32.05,32.05,0,0,0-40.31,4.05h0a32,32,0,0,0,42.89,47.41l70,51.36a32,32,0,1,0,47.57-14.69l27.39-77.59q1.38.12,2.76.12a32,32,0,0,0,22.63-54.62Zm-122-12.69h0a16,16,0,1,1,0,22.64A16,16,0,0,1,108.68,36.67Zm-80,94.65a16,16,0,0,1,0-22.64h0a16,16,0,1,1,0,22.64Zm142.65,88a16,16,0,0,1-22.63-22.63h0a16,16,0,1,1,22.63,22.63Zm-8.55-43.18a32,32,0,0,0-23,7.08l-70-51.36a32.17,32.17,0,0,0-1.34-26.65l33.95-30.55a32,32,0,0,0,45.47-10.81L176,71.56a32,32,0,0,0,14.12,27Zm56.56-92.84A16,16,0,1,1,196.7,60.68h0a16,16,0,0,1,22.63,22.63Z"/></svg>
